!!!COM: Jules Massenet
!!!CNT: Francais
!!!TXO: Francais
!!!OTL: Le\ve~toi
!!!LYR: Armand Silvestre
!!!OPR: Poe2me du Souvenir
!!!ONM: No. 1
!!!ENC: Jacob Pegg
!!!YOR: Romantic French Song 1830-1870 - David Tunley, ed.,
!!!YOR: New York: Garland Publishing, Inc., 1995, Vol. 6
!!!ODT: 1868/
!!NB: Vocal melody and text only encoded.
!!NB: First instance of melodic material only encoded.
!!NB: Editorial errors abound. Best guesses supplied and noted.
**kern	**silbe
*clef G2	*
*k[b-e-a-]	*
*M3/4	*
!!created: 12/14/03 1:46
!!proofed and posted: 12/14/03 13:35
!!edit time: 108 min.
=5	=5
4r	.
4r	.
{8..g	{Le\-
32b-	-ve~
=6	=6
4cc	~toi,
[2b-	|
=7	=7
4b-]}	|}
4r	.
{8..ee-	{Le\-
32b-	-ve~
=8	=8
4ee-	~toi,
8ee-	che\re
8cc	en-
8b-	-se-
8g	-ve-
=9	=9
2.b-	-li-
=10	=10
2g}	-e!}
8r	.
{8g	{De/-
=11	=11
4g	-chi-
4f	-re
8g	ton
8g	lin-
=12	=12
8an	ceul
8g	de
(4dd	fleurs;
4cc)}	|}
=13	=13
{4cc	{Tu
8dd	n'as
8cc	pas
8f	ou-
8a-	-bli-
=14	=14
2g	-e/
(8ee-	mes
8cc)	|
=15	=15
[2.b-	pleurs?
=16	=16
2.b-]}	|}
=17	=17
4r	.
4r	.
{8ee-	{La
8b-	plus
=18	=18
8ee-	dou-
8cc-	-ce
(4b-	larme
8..d-)	|
32g-	s'ou-
=19	=19
2.f	-bli-
=20	=20
2e-}	-e!}
4r	.
=21	=21
2.r	.
=22	=22
4r	.
8r	.
{8b-	{Je
8b-	te
8b-	re-
=23	=23
4.ddn	-trouve
8ddn	un
8ddn	peu
8ee-	pa^-
=24	=24
(4cc-	-li-
4b-)}	-e;}
6r	.
{12cc-	{pa^-
=25	=25
(4cc-	-li-
4b-)	-e;
8b-	Qui
8b-	t'a
=26	=26
8ccn	pris
8ccn	tes
4ee-	che\-
8an	-res
8an	cou-
=27	=27
[2.b-	-leurs?
=28	=28
2.b-]}	|}
=29	=29
4r	.
4r	.
{8b-	{J'ai
8b-	long-
=30	=30
8b-	-temps
8b-	dor-
4b-	-mi
8b-	sous
8b-	des
=31	=31
4b-}	fleurs,}
4r	.
8r	.
8r	.
!! 31-33 like 17-19
=34	=34
8r	.
16r	.
16r	.
{4cc-	{Ah!
12r	.
12cc-	Je
12cc-	ne
=35	=35
[4ee-	sais
6ee-]	|
12ee-	par
12ee-	quel-
12ee-	-le
12ee-	fo-
=36	=36
(4dd-	-li-
8b-)}	-e}
{8b-	{Je
8b-	t'aime
8gn	en-
=37	=37
4.een	-core
8een	sous
8een	tes
8een	pa^-
=38	=38
2ccn}	-leurs;}
4r	.
!! ccn doubled in duration to correct timing
=39	=39
{[2ff	{Viens,
6ff]	|
12a-	les
!! 2ff doubled in duration to correct timing.
=40	=40
12a-	ro-
12g	-ses
12a-	boi-
4f	-rent
4ddn	tes
=41	=41
[2cc	pleurs!
12cc]}	|}
12r	.
{12g	{les
=42	=42
12g	ro-
12f	-ses
12g	boi-
4e-	-ront
4cc	tes
=43	=43
[8b-	pleurs!
16b-]}	|}
16r	.
{[2b-	{Viens!
=44	=44
2.b-]}	|}
!!45-47 like 31-33 and 17-18
=47	=47
4r	.
4r	.
6r	.
{12b-	{Je
=48	=48
4b-	meurs
12b-	de
12b-	ta
12b-	me/-
8b-	-lan-
8b-	-cho-
=49	=49
4dd-	-li-
[4b-	-e!
8b-]}	|}
8r	.
=50	=50
{4cc-	{Vien-
12a-	-nent
12a-	de
12a-	nou-
(12a-	-vel-
12cc-	-les
12ff-)	dou-
=51	=51
(2.ff-	-leurs!
=52	=52
4ee-)}	|}
8r	.
{8gn	{C'est
8..gn	le
32b-	prin-
=53	=53
(4ccn	-temps!
8b-)	|
8b-	cueil-
6cc	-lons
12ee-	des
=54	=54
2ffn}	fleurs!}
{8..ee-	{Le\-
32b-	-ve~
!!b- halved in length to correct timing
=55	=55
4ee-	~toi,
8ee-	che\re
8cc	en-
8.b-	-se-
16g	-ve-
=56	=56
(4f	-li-
4a-)}	-e!}
4r	.
!!rest added to correct timing
=57	=57
4r	.
{4..cc-	{Le\-
16b-	-ve~
=58	=58
[2.b-	~toi!
=59	=59
4b-]}	|}
4r	.
{8..ccn	{Le\-
32ee-	-ve~
!! ee- halved in duration to correct timing
=60	=60
(4ff	~toi!
[2ee-)	|
=61	=61
2ee-]}	|}
4r;	.
*-	*-
